Adwaita++/status/scalable/gtk-image-missing.svg

<svg height="256" viewBox="0 0 67.73 67.73" width="256" xmlns="http://www.w3.org/2000/svg" xmlns:xlink="http://www.w3.org/1999/xlink">
  <filter id="filter1527" color-interpolation-filters="sRGB" height="1.027261" width="1.021436" x="-.010718" y="-.01363">
    <feGaussianBlur stdDeviation="2.0006923"/>
  </filter>
  <path d="m36.801661 4.8016614h383.999989c17.728 0 32 14.2719996 32 31.9999996v200.276899l-120.0003 120h-295.999689c-17.728 0-31.9999999-14.272-31.9999999-32v-288.276899c0-17.728 14.2719999-31.9999996 31.9999999-31.9999996z" filter="url(#filter1527)" opacity=".4" transform="matrix(.132978 0 0 .132978 3.968555 10.347934)"/>
  <path d="m8.8623647 10.853471h51.0635483c2.357438 0 4.255296 1.897863 4.255296 4.255296v26.632421l-15.957394 15.957361h-39.3614503c-2.35743 0-4.25529-1.897863-4.25529-4.255296v-38.334486c0-2.357433 1.89786-4.255296 4.25529-4.255296z" fill="#f6f5f4"/>
  <g fill="#deddda">
    <path d="m64.181249 41.807625-11.702084.000053c-2.35749 0-4.25527 1.897808-4.2553 4.255243l-.00001 11.635628z"/>
    <path d="m87.90625 40.09375c-.5255-.0286-1.03823.28305-1.4375.96875l-6.25 11.59375c-.53347.96339.04822 2.34375 1.09375 2.34375h13.15625c.98172 0 1.90311-1.15939 1.21875-2.34375l-6.3125-11.53125c-.39872-.64617-.94325-1.00262-1.46875-1.03125zm.0625 3.9375c.54448-.0172 1.04849.48677 1.03125 1.03125v3.9375c.007.52831-.47163 1-1 1-.52836 0-1.00747-.47169-1-1v-3.9375c-.008-.4666.3541-.91253.8125-1 .0511-.0145.10345-.02495.15625-.03125zm.03125 6.96875c.552285 0 1 .447715 1 1s-.447715 1-1 1-1-.447715-1-1 .447715-1 1-1z" transform="matrix(1.1642779 0 0 1.1642779 -68.02824124442 -21.0807157)"/>
  </g>
</svg>

<?xml version="1.0" encoding="UTF-8" standalone="no"?>
<svg
   xmlns:dc="http://purl.org/dc/elements/1.1/"
   xmlns:cc="http://creativecommons.org/ns#"
   xmlns:rdf="http://www.w3.org/1999/02/22-rdf-syntax-ns#"
   xmlns:svg="http://www.w3.org/2000/svg"
   xmlns="http://www.w3.org/2000/svg"
   xmlns:sodipodi="http://sodipodi.sourceforge.net/DTD/sodipodi-0.dtd"
   xmlns:inkscape="http://www.inkscape.org/namespaces/inkscape"
   width="256"
   height="256"
   version="1.1"
   viewBox="0 0 67.73 67.73"
   id="svg41"
   sodipodi:docname="image-x-generic.svg"
   inkscape:version="0.92.3 (2405546, 2018-03-11)">
  <metadata
     id="metadata45">
    <rdf:RDF>
      <cc:Work
         rdf:about="">
        <dc:format>image/svg+xml</dc:format>
        <dc:type
           rdf:resource="http://purl.org/dc/dcmitype/StillImage" />
        <dc:title></dc:title>
      </cc:Work>
    </rdf:RDF>
  </metadata>
  <sodipodi:namedview
     pagecolor="#ffffff"
     bordercolor="#666666"
     borderopacity="1"
     objecttolerance="10"
     gridtolerance="10"
     guidetolerance="10"
     inkscape:pageopacity="0"
     inkscape:pageshadow="2"
     inkscape:window-width="1920"
     inkscape:window-height="1009"
     id="namedview43"
     showgrid="false"
     inkscape:zoom="3.2617188"
     inkscape:cx="128"
     inkscape:cy="128"
     inkscape:window-x="0"
     inkscape:window-y="34"
     inkscape:window-maximized="1"
     inkscape:current-layer="svg41" />
  <defs
     id="defs17">
    <linearGradient
       id="linearGradient4226"
       x1="529.655"
       x2="-35.31"
       y1="401.584"
       y2="119.093"
       gradientTransform="matrix(.11988932 0 0 .11988589 4.1870909 232.14041)"
       gradientUnits="userSpaceOnUse">
      <stop
         style="stop-color:#d85eca"
         offset="0"
         id="stop2" />
      <stop
         style="stop-color:#9b33ae"
         offset="1"
         id="stop4" />
    </linearGradient>
    <linearGradient
       id="linearGradient4358"
       x1="88"
       x2="488"
       y1="88"
       y2="488"
       gradientUnits="userSpaceOnUse">
      <stop
         style="stop-color:#000000;stop-opacity:.58823532"
         offset="0"
         id="stop7" />
      <stop
         style="stop-color:#000000;stop-opacity:0"
         offset=".88"
         id="stop9" />
      <stop
         style="stop-color:#000000"
         offset="1"
         id="stop11" />
    </linearGradient>
    <filter
       id="filter4346"
       x="-.01"
       y="-.01"
       width="1.026"
       height="1.022"
       style="color-interpolation-filters:sRGB">
      <feGaussianBlur
         stdDeviation="2.12"
         id="feGaussianBlur14" />
    </filter>
    <filter
       inkscape:collect="always"
       style="color-interpolation-filters:sRGB"
       id="filter1527"
       x="-0.010717994"
       width="1.021436"
       y="-0.013630361"
       height="1.0272607">
      <feGaussianBlur
         inkscape:collect="always"
         stdDeviation="2.0006923"
         id="feGaussianBlur1529" />
    </filter>
  </defs>
  <path
     style="display:inline;opacity:0.4;vector-effect:none;fill:#000000;fill-opacity:1;stroke:none;stroke-width:0.5;stroke-linecap:butt;stroke-linejoin:miter;stroke-miterlimit:4;stroke-dasharray:none;stroke-dashoffset:0;stroke-opacity:1;marker:none;marker-start:none;marker-mid:none;marker-end:none;paint-order:normal;filter:url(#filter1527);enable-background:new"
     d="M 36.801661,4.8016614 H 420.80165 c 17.728,0 32,14.2719996 32,31.9999996 V 237.07856 l -120.0003,120 H 36.801661 c -17.728,0 -31.9999999,-14.272 -31.9999999,-32 V 36.801661 c 0,-17.728 14.2719999,-31.9999996 31.9999999,-31.9999996 z"
     id="path1525"
     inkscape:connector-curvature="0"
     sodipodi:nodetypes="sssccssss"
     transform="matrix(0.132978,0,0,0.132978,3.9685547,10.347934)" />
  <path
     sodipodi:nodetypes="sssccssss"
     inkscape:connector-curvature="0"
     id="rect1003"
     d="M 8.8623647,10.853471 H 59.925913 c 2.357438,0 4.255296,1.897863 4.255296,4.255296 V 41.741188 L 48.223815,57.698549 H 8.8623647 c -2.35743,0 -4.25529,-1.897863 -4.25529,-4.255296 V 15.108767 c 0,-2.357433 1.89786,-4.255296 4.25529,-4.255296 z"
     style="display:inline;opacity:1;vector-effect:none;fill:#f6f5f4;fill-opacity:1;stroke:none;stroke-width:0.066489;stroke-linecap:butt;stroke-linejoin:miter;stroke-miterlimit:4;stroke-dasharray:none;stroke-dashoffset:0;stroke-opacity:1;marker:none;marker-start:none;marker-mid:none;marker-end:none;paint-order:normal;enable-background:new" />
  <path
     inkscape:connector-curvature="0"
     style="display:inline;opacity:1;vector-effect:none;fill:#deddda;fill-opacity:1;stroke:none;stroke-width:0.066489;stroke-linecap:butt;stroke-linejoin:round;stroke-miterlimit:4;stroke-dasharray:none;stroke-dashoffset:0;stroke-opacity:1;enable-background:new"
     d="m 64.181249,41.807625 -11.702084,5.3e-5 c -2.35749,0 -4.25527,1.897808 -4.2553,4.255243 l -1e-5,11.635628 z"
     id="rect26812-9" />
  <g
     style="display:inline;fill:#eeeeec;enable-background:new"
     id="g19746"
     inkscape:label="dialog-warning"
     transform="matrix(1.1642779,0,0,1.1642779,-325.33389,-273.72902)">
    <path
       style="color:#bebebe;display:inline;overflow:visible;visibility:visible;fill:#deddda;fill-opacity:1;fill-rule:nonzero;stroke:none;stroke-width:1.78124988;marker:none;enable-background:new"
       d="m 87.90625,40.09375 c -0.5255,-0.0286 -1.03823,0.28305 -1.4375,0.96875 l -6.25,11.59375 C 79.68528,53.61964 80.26697,55 81.3125,55 h 13.15625 c 0.98172,0 1.90311,-1.15939 1.21875,-2.34375 L 89.375,41.125 c -0.39872,-0.64617 -0.94325,-1.00262 -1.46875,-1.03125 z m 0.0625,3.9375 C 88.51323,44.01405 89.01724,44.51802 89,45.0625 V 49 c 0.007,0.52831 -0.47163,1 -1,1 -0.52836,0 -1.00747,-0.47169 -1,-1 v -3.9375 c -0.008,-0.4666 0.3541,-0.91253 0.8125,-1 0.0511,-0.0145 0.10345,-0.02495 0.15625,-0.03125 z M 88,51 c 0.552285,0 1,0.447715 1,1 0,0.552285 -0.447715,1 -1,1 -0.552285,0 -1,-0.447715 -1,-1 0,-0.552285 0.447715,-1 1,-1 z"
       transform="translate(221.0002,217)"
       id="path18112"
       inkscape:connector-curvature="0" />
  </g>
</svg>
